public/images/right.svg

<svg xmlns:xlink="http://www.w3.org/1999/xlink" xmlns="http://www.w3.org/2000/svg" width="22" height="14" viewBox="0 0 22 14" fill="none">
<path d="M16.7516 0.505102C16.3999 0.162808 15.8321 0.165295 15.4834 0.510657C15.1348 0.856019 15.1373 1.41347 15.4891 1.75577L17.5971 3.80695C18.4526 4.63942 19.0395 5.21234 19.4366 5.69778C19.5656 5.85555 19.6663 5.99443 19.7445 6.11957L1.77179 6.11957C1.2765 6.11957 0.875 6.51375 0.875 7C0.875 7.48625 1.2765 7.88044 1.77179 7.88044L19.7445 7.88043C19.6663 8.00557 19.5656 8.14445 19.4366 8.30221C19.0395 8.78766 18.4526 9.36058 17.5971 10.193L15.4891 12.2442C15.1373 12.5865 15.1348 13.144 15.4834 13.4893C15.8321 13.8347 16.3999 13.8372 16.7516 13.4949L18.8976 11.4067C19.7059 10.6203 20.3665 9.97753 20.835 9.40481C21.3222 8.80925 21.6748 8.20476 21.769 7.47915C21.7897 7.32007 21.8 7.16003 21.8 7C21.8 6.83997 21.7897 6.67993 21.769 6.52085C21.6748 5.79524 21.3222 5.19075 20.835 4.59519C20.3665 4.02247 19.7059 3.37969 18.8976 2.59323L16.7516 0.505102Z" fill="#8D9AC5"/>
</svg>

<svg xmlns="http://www.w3.org/2000/svg" width="22" height="14" fill="none"><path fill="#8D9AC5" d="M16.752.505a.91.91 0 0 0-1.269.006.87.87 0 0 0 .006 1.245l2.108 2.051c.856.832 1.442 1.405 1.84 1.89.129.159.23.297.307.423H1.772A.89.89 0 0 0 .875 7c0 .486.401.88.897.88h17.973a4 4 0 0 1-.308.422c-.398.486-.984 1.059-1.84 1.891l-2.108 2.051a.87.87 0 0 0-.006 1.245.91.91 0 0 0 1.269.006l2.146-2.088c.808-.787 1.468-1.43 1.937-2.002.487-.596.84-1.2.934-1.926a3.7 3.7 0 0 0 0-.958c-.094-.726-.447-1.33-.934-1.926-.469-.573-1.13-1.215-1.937-2.002z"/></svg>
